icon/fa/rupiah-sign.svg

<svg xmlns="http://www.w3.org/2000/svg" viewBox="0 0 512 512"><!--! Font Awesome Free 6.1.2 by @fontawesome - https://fontawesome.com License - https://fontawesome.com/license/free (Icons: CC BY 4.0, Fonts: SIL OFL 1.1, Code: MIT License) Copyright 2022 Fonticons, Inc.--><path d="M0 64c0-17.67 14.33-32 32-32h80c79.5 0 144 64.47 144 144 0 58.8-35.2 109.3-85.7 131.7l51.4 128.4c6.6 16.4-1.4 35-17.8 41.6-16.4 6.6-35-1.4-41.6-17.8l-56-139.9H64v128c0 17.7-14.33 32-32 32S0 465.7 0 448V64zm64 192h48c44.2 0 80-35.8 80-80s-35.8-80-80-80H64v160zm336-96c61.9 0 112 50.1 112 112s-50.1 112-112 112h-48v96c0 17.7-14.3 32-32 32s-32-14.3-32-32V192c0-17.7 14.3-32 32-32h80zm48 112c0-26.5-21.5-48-48-48h-48v96h48c26.5 0 48-21.5 48-48z"/></svg>

<svg xmlns="http://www.w3.org/2000/svg" viewBox="0 0 512 512" height="1em" width="1em">
<!--! Font Awesome Free 6.1.2 by @fontawesome - https://fontawesome.com License - https://fontawesome.com/license/free (Icons: CC BY 4.0, Fonts: SIL OFL 1.1, Code: MIT License) Copyright 2022 Fonticons, Inc.-->
  <path d="M.0003 64C.0003 46.33 14.33 32 32 32H112C191.5 32 256 96.47 256 176C256 234.8 220.8 285.3 170.3 307.7L221.7 436.1C228.3 452.5 220.3 471.1 203.9 477.7C187.5 484.3 168.9 476.3 162.3 459.9L106.3 320H64V448C64 465.7 49.67 480 32 480C14.33 480 0 465.7 0 448L.0003 64zM64 256H112C156.2 256 192 220.2 192 176C192 131.8 156.2 96 112 96H64V256zM400 160C461.9 160 512 210.1 512 272C512 333.9 461.9 384 400 384H352V480C352 497.7 337.7 512 320 512C302.3 512 288 497.7 288 480V192C288 174.3 302.3 160 320 160H400zM448 272C448 245.5 426.5 224 400 224H352V320H400C426.5 320 448 298.5 448 272z"/>
</svg>
